X:6312
T:Strayaway Child (Duet part)
O:england
M:6/8
L:1/8
K:G
A2|B3 E3|B3 G2A|BEE BAG|F3 Bdc|
BEE GEE|BEE G2A|B3 B2A|GEE E2A|
BGB BGB|BEE G2F|BGB BAG|F3 B3|
BGB BGE|BEE G2F|G3 G2A|GEE E2||
z|z6|z6|z6|z6|
z6|z6|z6|z4zG|
e6|dBG AGA|B3 B3|dBG F2f|
gfe dcB|AGA B3|AGE FGF|EFE E3||
E6|E6|FGE FGF|EFE E3|
E6|E6|FGE FGE|E3 E3|
E6|E6|FGE FGF|EFE E3|
E6|E6|FGE FGE|E3 E2
|:B|ege ded|cBA BGE|GAB dBB|BGE E2c|
BAG EDE|GAB cBA|BAG EAG|EFE E2:|
B|Bee efg|fdf edA|Be2 efg|f3 e2f|
gfe dcB|AFA BGE|AGE FGF|EFE E2B|
e3 efg|f3 edA|Bee efg|f3 e2f|
gfe dcB|AF2 G2E|FGE FGF|EFE E2||
B|edB edB|AGA BGE|e3 edB|AGA B3|
edB gfe|dcB AGA|BAG EAG|EFE E2e|
edB BGB|AGA BGE|BGB BGB|AGA B3|
edB gfe|dcB AGA|BAG EAG|EFE E2||


